Gurmukhi/0A07.svg

<svg enable-background="new 0 0 336 592" viewBox="0 0 336 592" xmlns="http://www.w3.org/2000/svg"><path d="m178.293671 372.762451c-15.855439-12.428589-28.565796-26.946991-36.747086-45.168915-1.37439-3.061157-1.183075-5.473114.911057-8.265747 12.146545-16.197754 27.963119-27.388458 46.602081-34.871124 1.476395-.592682 3.255005-.671661 4.53981-2.423981-5.442123-2.298278-11.092102-3.676239-16.242767-6.367584-20.003388-10.452209-30.634995-27.492065-34.655213-49.122345-1.981674-10.662155-.061462-9.094711-10.458862-9.202942-8.998413-.093673-18.008041.225693-26.994095-.120712-4.829017-.186157-6.212074 1.360413-6.197159 6.194321.164017 53.162414.109269 106.325531.1092 159.488433 0 1.498902.106628 3.021149-.110039 4.492188-.557548 3.785278-2.925773 5.211792-6.349075 3.603729-5.576454-2.619415-11.024056-5.511871-16.552178-8.235992-2.852081-1.405487-3.325912-3.838288-3.310676-6.683411.058891-10.998932.038437-21.998352.038795-32.997589.001282-38.830627.015023-77.661285-.012657-116.491913-.007461-10.466568.875664-9.179977-9.505497-9.263656-5.49929-.044342-11.001697-.117691-16.497787.019271-3.120415.077759-5.006966-1.132202-6.00264-4.094894-1.218056-3.62442-2.663933-7.171585-3.942013-10.776703-1.639431-4.62442-.40424-6.599472 4.566475-6.687088 8.496704-.149795 16.998066-.020096 25.497253-.057876 1.624314-.007218 3.333527.388916 5.328484-.924271-2.466194-7.206329-4.655121-14.624405-6.062752-22.283966-5.003406-27.225754 11.205994-53.598877 37.862976-61.131684 35.428032-10.011375 68.994561 5.742432 86.167229 40.39766 4.450317 8.980972 7.967285 18.290909 10.485031 27.995666.707047 2.725235 2.521927 5.87088-1.562195 7.010346-3.454528.963806-7.351577 1.531036-9.519714-2.884186-3.671433-7.476517-7.539856-14.847122-12.154205-21.802734-7.103058-10.707093-15.279572-20.422364-27.557221-25.276215-15.433929-6.101685-30.903747-5.650146-44.966087 3.559555-13.214943 8.654739-16.846275 22.090683-15.287621 37.161606.424774 4.107162 1.814782 8.105972 2.427613 12.204483.695778 4.653091 3.013946 6.125763 7.767364 6.114746 67.328293-.155731 134.657028-.114883 201.985672-.121246 1.666535-.000153 3.339966.101822 4.998169-.014695 3.347443-.235244 5.273377 1.345322 6.348785 4.417023 1.209778 3.45546 2.726105 6.805802 3.881165 10.277695 1.721802 5.175339.568634 6.818878-4.838867 6.85936-10.165405.076095-20.33725.217514-30.495117-.069214-4.441925-.125382-5.759034 1.412445-5.718079 5.734619.181458 19.16365-.244659 38.33815.230164 57.491836.248443 10.021332-3.437561 16.766175-16.041871 15.82013-19.692306-1.478058-38.811615 1.996521-57.251342 8.961029-13.728821 5.185242-25.811127 12.973724-36.135788 23.49527-2.349701 2.3945-2.413925 4.135772-.448563 6.810882 14.256394 19.404755 33.037232 31.00119 57.326141 31.561737 18.002778.415467 33.88086-6.162628 47.103486-18.62735 5.764465-5.434021 6.818573-5.370239 11.548706 1.126496 2.549224 3.501282 4.965789 7.099487 7.531402 10.588409 1.908936 2.595886 1.661133 4.75824-.629272 7.048004-21.97226 21.965699-47.834458 29.675354-78.130005 21.638184-11.93039-3.165009-22.537933-8.930267-32.880615-16.104645m72.366394-133.262176c-.00058-5.326676-.265061-10.67038.076904-15.974976.305573-4.740219-1.258957-6.363357-6.154724-6.311432-21.803558.231369-43.610962.099365-65.416977.102127-10.926254.001374-10.926239.004746-9.897873 10.779038 2.091003 21.90773 21.121918 41.351654 42.872528 44.675506 10.801758 1.650605 21.601151.591095 32.344299 1.464844 5.438981.442352 6.442887-1.415955 6.26442-6.273254-.335922-9.142731-.092117-18.306778-.088577-28.461853z"/></svg>

<svg version="1.1" id="Layer_1" xmlns="http://www.w3.org/2000/svg" xmlns:xlink="http://www.w3.org/1999/xlink" x="0px" y="0px"
	 width="100%" viewBox="0 0 336 592" enable-background="new 0 0 336 592" xml:space="preserve">
<path fill="#000000" opacity="1.000000" stroke="none" 
	d="
M178.293671,372.762451 
	C162.438232,360.333862 149.727875,345.815460 141.546585,327.593536 
	C140.172195,324.532379 140.363510,322.120422 142.457642,319.327789 
	C154.604187,303.130035 170.420761,291.939331 189.059723,284.456665 
	C190.536118,283.863983 192.314728,283.785004 193.599533,282.032684 
	C188.157410,279.734406 182.507431,278.356445 177.356766,275.665100 
	C157.353378,265.212891 146.721771,248.173035 142.701553,226.542755 
	C140.719879,215.880600 142.640091,217.448044 132.242691,217.339813 
	C123.244278,217.246140 114.234650,217.565506 105.248596,217.219101 
	C100.419579,217.032944 99.036522,218.579514 99.051437,223.413422 
	C99.215454,276.575836 99.160706,329.738953 99.160637,382.901855 
	C99.160637,384.400757 99.267265,385.923004 99.050598,387.394043 
	C98.493050,391.179321 96.124825,392.605835 92.701523,390.997772 
	C87.125069,388.378357 81.677467,385.485901 76.149345,382.761780 
	C73.297264,381.356293 72.823433,378.923492 72.838669,376.078369 
	C72.897560,365.079437 72.877106,354.080017 72.877464,343.080780 
	C72.878746,304.250153 72.892487,265.419495 72.864807,226.588867 
	C72.857346,216.122299 73.740471,217.408890 63.359310,217.325211 
	C57.860020,217.280869 52.357613,217.207520 46.861523,217.344482 
	C43.741108,217.422241 41.854557,216.212280 40.858883,213.249588 
	C39.640827,209.625168 38.194950,206.078003 36.916870,202.472885 
	C35.277439,197.848465 36.512630,195.873413 41.483345,195.785797 
	C49.980049,195.636002 58.481411,195.765701 66.980598,195.727921 
	C68.604912,195.720703 70.314125,196.116837 72.309082,194.803650 
	C69.842888,187.597321 67.653961,180.179245 66.246330,172.519684 
	C61.242924,145.293930 77.452324,118.920807 104.109306,111.388000 
	C139.537338,101.376625 173.103867,117.130432 190.276535,151.785660 
	C194.726852,160.766632 198.243820,170.076569 200.761566,179.781326 
	C201.468613,182.506561 203.283493,185.652206 199.199371,186.791672 
	C195.744843,187.755478 191.847794,188.322708 189.679657,183.907486 
	C186.008224,176.430969 182.139801,169.060364 177.525452,162.104752 
	C170.422394,151.397659 162.245880,141.682388 149.968231,136.828537 
	C134.534302,130.726852 119.064484,131.178391 105.002144,140.388092 
	C91.787201,149.042831 88.155869,162.478775 89.714523,177.549698 
	C90.139297,181.656860 91.529305,185.655670 92.142136,189.754181 
	C92.837914,194.407272 95.156082,195.879944 99.909500,195.868927 
	C167.237793,195.713196 234.566528,195.754044 301.895172,195.747681 
	C303.561707,195.747528 305.235138,195.849503 306.893341,195.732986 
	C310.240784,195.497742 312.166718,197.078308 313.242126,200.150009 
	C314.451904,203.605469 315.968231,206.955811 317.123291,210.427704 
	C318.845093,215.603043 317.691925,217.246582 312.284424,217.287064 
	C302.119019,217.363159 291.947174,217.504578 281.789307,217.217850 
	C277.347382,217.092468 276.030273,218.630295 276.071228,222.952469 
	C276.252686,242.116119 275.826569,261.290619 276.301392,280.444305 
	C276.549835,290.465637 272.863831,297.210480 260.259521,296.264435 
	C240.567215,294.786377 221.447906,298.260956 203.008179,305.225464 
	C189.279358,310.410706 177.197052,318.199188 166.872391,328.720734 
	C164.522690,331.115234 164.458466,332.856506 166.423828,335.531616 
	C180.680222,354.936371 199.461060,366.532806 223.749969,367.093353 
	C241.752747,367.508820 257.630829,360.930725 270.853455,348.466003 
	C276.617920,343.031982 277.672028,343.095764 282.402161,349.592499 
	C284.951385,353.093781 287.367950,356.691986 289.933563,360.180908 
	C291.842499,362.776794 291.594696,364.939148 289.304291,367.228912 
	C267.332031,389.194611 241.469833,396.904266 211.174286,388.867096 
	C199.243896,385.702087 188.636353,379.936829 178.293671,372.762451 
M250.660065,239.500275 
	C250.659485,234.173599 250.395004,228.829895 250.736969,223.525299 
	C251.042542,218.785080 249.478012,217.161942 244.582245,217.213867 
	C222.778687,217.445236 200.971283,217.313232 179.165268,217.315994 
	C168.239014,217.317368 168.239029,217.320740 169.267395,228.095032 
	C171.358398,250.002762 190.389313,269.446686 212.139923,272.770538 
	C222.941681,274.421143 233.741074,273.361633 244.484222,274.235382 
	C249.923203,274.677734 250.927109,272.819427 250.748642,267.962128 
	C250.412720,258.819397 250.656525,249.655350 250.660065,239.500275 
z"/>
</svg>
